theme/snap/pix_plugins/mod/lti/monologo.svg

<svg xmlns="http://www.w3.org/2000/svg" width="50" height="50" viewBox="0 0 50 50">
  <g id="Group_196" data-name="Group 196" transform="translate(-4954 -1863)">
    <rect id="Rectangle_71" data-name="Rectangle 71" width="50" height="50" rx="5" transform="translate(4954 1863)" fill="#399be2"/>
    <path id="monologo" d="M34.629,19.129a1.27,1.27,0,0,0,1.832-.149,1.292,1.292,0,0,0,.347-.842V6.55a1.311,1.311,0,0,0-1.288-1.288H26.309a5.274,5.274,0,0,0-10.548,0H6.55A1.311,1.311,0,0,0,5.262,6.55h0v9.211a5.274,5.274,0,0,0,0,10.548v9.211A1.311,1.311,0,0,0,6.55,36.808H18.138a1.367,1.367,0,0,0,1.288-1.387,1.086,1.086,0,0,0-.347-.842,2.628,2.628,0,1,1,3.863,0,1.271,1.271,0,0,0,.1,1.832,1.32,1.32,0,0,0,.891.347H35.521a1.311,1.311,0,0,0,1.288-1.288h0V23.883A1.367,1.367,0,0,0,35.422,22.6a1.086,1.086,0,0,0-.842.347,2.647,2.647,0,0,1-3.714-.149h0A2.633,2.633,0,0,1,34.629,19.129ZM32.9,26.309a5.4,5.4,0,0,0,1.288-.149v8.072H26.111a5.273,5.273,0,0,0-10.2-2.674,6.091,6.091,0,0,0,0,2.674H7.837V24.824A1.311,1.311,0,0,0,6.55,23.536h0c-.446.1-.891.149-1.288.2a2.625,2.625,0,1,1,0-5.249,2.59,2.59,0,0,1,.891.149,1.33,1.33,0,0,0,1.684-.842,1.23,1.23,0,0,0,.05-.446V7.887h9.459A1.311,1.311,0,0,0,18.633,6.6a1.371,1.371,0,0,0-.05-.446,2.525,2.525,0,0,1,1.634-3.318A2.525,2.525,0,0,1,23.536,4.47a2.59,2.59,0,0,1,.149.891h0a2.8,2.8,0,0,1-.149.891,1.33,1.33,0,0,0,.842,1.684,1.371,1.371,0,0,0,.446.05h9.459v8.072a5.261,5.261,0,0,0-2.575,10.2,4.579,4.579,0,0,0,1.189.05Z" transform="translate(4960.583 1869.583)" fill="#fff"/>
  </g>
</svg>

<?xml version="1.0" encoding="UTF-8" standalone="no"?>
<!DOCTYPE svg PUBLIC "-//W3C//DTD SVG 1.1//EN" "http://www.w3.org/Graphics/SVG/1.1/DTD/svg11.dtd">
<svg width="100%" height="100%" viewBox="0 0 512 512" version="1.1" xmlns="http://www.w3.org/2000/svg" xmlns:xlink="http://www.w3.org/1999/xlink" xml:space="preserve" xmlns:serif="http://www.serif.com/" style="fill-rule:evenodd;clip-rule:evenodd;stroke-linejoin:round;stroke-miterlimit:2;">
    <g id="monologo" transform="matrix(10.5473,0,0,10.5473,61.9451,61.9504)">
        <path d="M34.629,19.129C34.862,19.336 35.162,19.451 35.474,19.451C35.857,19.451 36.22,19.278 36.461,18.98C36.675,18.751 36.798,18.451 36.808,18.138L36.808,6.55C36.796,5.848 36.222,5.274 35.52,5.262L26.309,5.262C26.309,2.369 23.928,-0.012 21.035,-0.012C18.142,-0.012 15.761,2.369 15.761,5.262L6.55,5.262C5.848,5.274 5.274,5.848 5.262,6.55L5.262,15.761C2.369,15.761 -0.012,18.142 -0.012,21.035C-0.012,23.928 2.369,26.309 5.262,26.309L5.262,35.52C5.274,36.222 5.848,36.796 6.55,36.808L18.138,36.808C18.865,36.766 19.438,36.149 19.426,35.421C19.439,35.103 19.312,34.795 19.079,34.579C18.631,34.094 18.383,33.457 18.383,32.797C18.383,31.355 19.569,30.169 21.011,30.169C22.452,30.169 23.639,31.355 23.639,32.797C23.639,33.457 23.39,34.094 22.942,34.579C22.722,34.814 22.599,35.125 22.599,35.447C22.599,35.817 22.761,36.17 23.042,36.411C23.285,36.634 23.603,36.758 23.933,36.758L35.521,36.758C36.223,36.746 36.797,36.172 36.809,35.47L36.809,23.883C36.764,23.158 36.149,22.588 35.422,22.6C35.104,22.587 34.796,22.714 34.58,22.947C33.516,23.915 31.849,23.848 30.866,22.798C30.456,22.321 30.23,21.711 30.23,21.082C30.23,19.637 31.418,18.449 32.863,18.449C33.515,18.449 34.145,18.691 34.629,19.129ZM32.9,26.309C33.334,26.311 33.766,26.261 34.188,26.16L34.188,34.232L26.111,34.232C26.212,33.821 26.263,33.399 26.263,32.976C26.263,30.083 23.883,27.703 20.99,27.703C18.631,27.703 16.545,29.286 15.911,31.558C15.713,32.438 15.713,33.352 15.911,34.232L7.837,34.232L7.837,24.824C7.825,24.122 7.252,23.549 6.55,23.536C6.104,23.636 5.659,23.685 5.262,23.736C5.245,23.736 5.228,23.737 5.211,23.737C3.771,23.737 2.586,22.552 2.586,21.112C2.586,19.671 3.771,18.487 5.211,18.487C5.228,18.487 5.245,18.487 5.262,18.487C5.565,18.484 5.867,18.535 6.153,18.636C6.289,18.681 6.431,18.705 6.575,18.705C7.146,18.705 7.657,18.336 7.837,17.794C7.881,17.65 7.898,17.498 7.887,17.348L7.887,7.887L17.346,7.887C18.047,7.874 18.62,7.301 18.633,6.6C18.641,6.45 18.624,6.299 18.583,6.154C18.474,5.867 18.417,5.562 18.417,5.255C18.417,4.143 19.152,3.155 20.217,2.836C20.504,2.726 20.81,2.67 21.117,2.67C22.229,2.67 23.217,3.405 23.536,4.47C23.637,4.756 23.688,5.058 23.685,5.361C23.684,5.664 23.634,5.965 23.536,6.252C23.491,6.388 23.467,6.53 23.467,6.674C23.467,7.245 23.836,7.756 24.378,7.936C24.523,7.977 24.674,7.994 24.824,7.986L34.283,7.986L34.283,16.058C33.893,15.968 33.495,15.922 33.095,15.922C30.209,15.922 27.834,18.297 27.834,21.183C27.834,23.547 29.427,25.635 31.708,26.258C32.1,26.326 32.5,26.343 32.897,26.308L32.9,26.309Z" style="fill:rgb(58,23,103);fill-rule:nonzero;"/>
    </g>
</svg>
